!!!!SEGMENT: pl-kk--kk-i-482--005_zieleniewicz-mathias--msza-isza-agnus.krn
!!!cenid: 17xx:1913
!!!COM: Zieleniewicz, Mathias
!!!COM-rismID: pe50045913
!!!CDT: <1724->1763
!!!CNT: Polish
!!!OPR: Msza Isza
!!!OTL: Agnus
!!!OMV: 005
!!!PDT: 1724
!!!AGN: Sacred; Mass
!!!SMS-siglum: PL-Kk
!!!SMS-shelfmark: Kk.I.482
!!!SMS-shelfwork: 001-005 M
!!!SMS-variant: Soprano. PL-Kk KK.I.482:0023; Alto. PL-Kk KK.I.482:0019; Tenore. PL-Kk KK.I.482:0025; Basso. PL-Kk KK.I.482:0029
!!!SMS-altvar: Soprano PL-Kk KK.I.482:0035; Alto PL-Kk KK.I.482:0039; Tenore. PL-Kk KK.I.482:0044; [Partytura] PL-Kk KK.I.482:0010-0011
!!!NIFC-rismSourceID: 1001140268
!!!NIFC-rismChildID: 1001140322
!!!NIFC-islandoraID: pl-kk:14397
!!!URL-pdf-islandora: https://repozytorium.nifc.pl/islandora/object/pl-kk%3A14397/datastream/PDF/view
!!!URL-scan: https://polish.musicsources.pl/pl/lokalizacje/galeria/rekopisy/6089 @EN{Scan on Polish Music Sources Website} @PL{Skany w portalu Dziedzictwo Muzyki Polskiej w otwartym dostępie}
!!!ONB-nifc: UWAGA: zakres skanów 0015-0031. Proszę uzupełnić pola !!!SMS dot. partytury i głosów. UWAGA: w zbiorze Msza Isza i Msza 2ga. Części Mszy Iszej: 1. Kyrie, 2. Gloria, 3. Sanctus, 4. Benedictus, 5. Agnus
!!!AIN: 1 alto 1 bass 1 soprn 1 tenor
!!!key:
**kern	**text	**kern	**text	**kern	**text	**kern	**text
*part4	*part4	*part3	*part3	*part2	*part2	*part1	*part1
*staff4	*staff4	*staff3	*staff3	*staff2	*staff2	*staff1	*staff1
*Ibass	*	*Itenor	*	*Ialto	*	*Isoprn	*
*I"Basso.	*	*I"Tenore.	*	*I"Alto.	*	*I"Soprano.	*
*I'B	*	*I'T	*	*I'A	*	*I'S	*
*clefF4	*	*clefC4	*	*clefC3	*	*clefC1	*
*k[]	*	*k[]	*	*k[]	*	*k[]	*
*a:	*	*a:	*	*a:	*	*a:	*
*M2/2	*	*M2/2	*	*M2/2	*	*M2/2	*
*met(c|)	*	*met(c|)	*	*met(c|)	*	*met(c|)	*
=1	=1	=1	=1	=1	=1	=1	=1
*all\right	*	*all\right	*	*all\right	*	*all\right	*
!LO:TX:a:t=2.	!	!	!	!LO:TX:a:t=3.	!	!	!
0r	.	00r	.	0r	.	1ee	A-
=2	=2	=2	=2	=2	=2	=2	=2
.	.	.	.	.	.	1a	-gnus
=3	=3	=3	=3	=3	=3	=3	=3
1A	A-	.	.	1r	.	1cc	De-
=4	=4	=4	=4	=4	=4	=4	=4
1E	-gnus	.	.	1e	A-	1b	-i
=5	=5	=5	=5	=5	=5	=5	=5
1G	De-	0r	.	1B	-gnus	2r	.
*	*	*	*	*	*	*2\right	*
.	.	.	.	.	.	2b\	qui
=6	=6	=6	=6	=6	=6	=6	=6
*2\right	*	*	*	*	*	*	*
2F#X\	-i	.	.	1d	De-	2dd\	tol-
2F#\	qui	.	.	.	.	4dd\	-lis
.	.	.	.	.	.	4dd\	pec-
=7	=7	=7	=7	=7	=7	=7	=7
*	*	*	*	*2\right	*	*	*
2A\	tol-	1r	.	2e\	-i	1cc	-ca-
4A\	-lis	.	.	2e\	qui	.	.
4A\	pec-	.	.	.	.	.	.
=8	=8	=8	=8	=8	=8	=8	=8
2G\	-ca-	1e	A-	2g\	tol-	2b\	-ta
2E\	-ta	.	.	4g\	-lis	[2ee\	mun-
.	.	.	.	4g\	pec-	.	.
=9	=9	=9	=9	=9	=9	=9	=9
1F	mun-	1A	-gnus	2a\	-ca-	2ee\]	.
.	.	.	.	2a\	-ta	2dd\	.
!	!	!	!	!	!	!LO:LB:g=original	!
=10	=10	=10	=10	=10	=10	=10	=10
2C/	-di	1c	De-	1g	mun-	2ee\	-di,
2C/	qui	.	.	.	.	2e/	qui
!	!	!	!	!LO:LB:g=original	!	!	!
=11	=11	=11	=11	=11	=11	=11	=11
*	*	*2\right	*	*	*	*	*
1E	tol-	2B\	-i	1e	-di	2g\	tol-
.	.	2B\	qui	.	.	4g\	-lis
.	.	.	.	.	.	4a\	pec-
!LO:LB:g=original	!	!	!	!	!	!	!
=12	=12	=12	=12	=12	=12	=12	=12
!	!	!	!	!LO:TX:a:t=1.	!	!	!
1BB	-lis	1d	tol-	1r	.	2.b\	-ca-
.	.	.	.	.	.	8a\L	.
.	.	.	.	.	.	8g\J	.
=13	=13	=13	=13	=13	=13	=13	=13
1D	pec-	2A\	-lis	1d	mi-	4f#X/	.
.	.	.	.	.	.	4e/	.
.	.	2A\	pec-	.	.	4f#/	.
.	.	.	.	.	.	4g/	-ta
=14	=14	=14	=14	=14	=14	=14	=14
1C	.	1c	-ca-	2.e\	.	1a	mun-
.	.	.	.	4f\	-se-	.	.
=15	=15	=15	=15	=15	=15	=15	=15
2.E\	.	2B\	-ta	2.g\	-re-	2g\	-di
!	!	!LO:LB:g=original	!	!	!	!	!
!	!	!LO:N:vis=2.	!	!	!	!	!
.	.	[y2e\	mun-	.	.	2cc\	pec-
4F\	.	.	.	4a\	-re	.	.
=16	=16	=16	=16	=16	=16	=16	=16
!	!	!LO:N:xstem:cue	!	!LO:TX:a:t=2	!	!	!
2G\	-ca-	4e\]	.	0g	no-	2b\	-ca-
.	.	4d\	.	.	.	.	.
2G\	-ta	[2c\	.	.	.	[2ee\	-ta
=17	=17	=17	=17	=17	=17	=17	=17
*	*	*	*	*	*	*^	*
!	!	!	!	!	!	!LO:TX:t=P:problem=zapis poprawiany	!	!
1G	mun-	2c\]	.	.	.	2.dd\	2ee\]	mun-
.	.	2B\	.	.	.	.	2dd\	.
.	.	.	.	.	.	8cc\L	.	.
.	.	.	.	.	.	8dd\J	.	.
*	*	*	*	*	*	*v	*v	*
!	!	!	!	!	!	!LO:LB:g=original	!
=18	=18	=18	=18	=18	=18	=18	=18
2C/	-di	1c	-di	2g\	-bis,	2ee\	-di
[>2C/	mi-	.	.	2r	.	[2ee\	mi-
=19	=19	=19	=19	=19	=19	=19	=19
!	!	!LO:TX:a:t=1.	!	!LO:TX:a:t=2	!	!	!
2C/]	.	1r	.	0r	.	2ee\]	.
2BB/	-se-	.	.	.	.	2dd\	-se-
=20	=20	=20	=20	=20	=20	=20	=20
1AA	-re-	2r	.	.	.	1cc	-re-
.	.	[2e\	mi-	.	.	.	.
=21	=21	=21	=21	=21	=21	=21	=21
1GG#X	-re	2e\]	.	2.B/	mi-	1b	-re
.	.	2d\	-se-	.	.	.	.
.	.	.	.	4B/	-se-	.	.
=22	=22	=22	=22	=22	=22	=22	=22
0AA	no-	2c\	-re-	2c\	-re-	2a\	no-
.	.	2B\	-re	2e\	-re	2b\	.
!	!	!	!	!LO:LB:g=original	!	!	!
=23	=23	=23	=23	=23	=23	=23	=23
.	.	1A	no-	1e	no-	1cc	.
=24	=24	=24	=24	=24	=24	=24	=24
!	!	!LO:TX:a:t=2	!	!	!	!	!
0E;	-bis.	0G#X	-bis.	0e	-bis.	0b	-bis.
=25	=25	=25	=25	=25	=25	=25	=25
.	.	.	.	.	.	.	.
!LO:LB:g=original	!	!LO:LB:g=original	!	!	!	!	!
=26||	=26||	=26||	=26||	=26||	=26||	=26||	=26||
*M2/2	*	*M2/2	*	*M2/2	*	*M2/2	*
*met(c|)	*	*met(c|)	*	*met(c|)	*	*met(c|)	*
!	!	!LO:TX:a:t=3.	!	!LO:TX:a:t=2	!	!LO:TX:a:t=1.	!
1E	A-	0r	.	0r	.	1r	.
=27	=27	=27	=27	=27	=27	=27	=27
2F#X\	-gnus	.	.	.	.	1a	A-
[2A\	De-	.	.	.	.	.	.
=28	=28	=28	=28	=28	=28	=28	=28
2A\]	.	1r	.	2r	.	2b\	-gnus
2G\	.	.	.	2g\	A-	[2ee\	De-
=29	=29	=29	=29	=29	=29	=29	=29
1F#X	.	2r	.	2a\	.	2ee\]	.
.	.	2A\	A-	2a\	-gnus	2dd\	.
!	!	!	!	!	!	!LO:LB:g=original	!
=30	=30	=30	=30	=30	=30	=30	=30
2E\	-i	2B\	-gnus	2g\	De-	2ee\	-i
2C/	qui	[2e\	De-	2e\	.	2g\	qui
=31	=31	=31	=31	=31	=31	=31	=31
2AA/	tol-	2e\]	.	2c\	-i	1f#X	tol-
2BB/	.	2d#X\	.	2d\	qui	.	.
=32	=32	=32	=32	=32	=32	=32	=32
2C/	-lis	2e\	-i	2e\	tol-	4e/	-lis
.	.	.	.	.	.	4c/	pe-
2E\	pec-	2e\	qui	4a\	-lis	[2cc\	-ca-
.	.	.	.	4a\	pec-	.	.
!	!	!	!	!LO:LB:g=original	!	!	!
=33	=33	=33	=33	=33	=33	=33	=33
2F#X\	-ca-	2dn\	tol-	2a\	-ca-	2cc\]	.
2G\	-ta	4d\	-lis	[2g\	.	2b\	-ta
.	.	4d\	pec-	.	.	.	.
=34	=34	=34	=34	=34	=34	=34	=34
2E\	mun-	2G/	-ca-	2g\]	.	2cc#X\	mu-
2D\	.	2F#X/	-ta	2d\	-ta	[2dd\	.
!LO:LB:g=original	!	!	!	!	!	!	!
=35	=35	=35	=35	=35	=35	=35	=35
1E	.	1G	mun-	2B/	mun-	2dd\]	.
.	.	.	.	2G/	.	2cc#X\	.
!	!	!LO:LB:g=original	!	!	!	!	!
=36	=36	=36	=36	=36	=36	=36	=36
!	!	!	!	!	!	!LO:TX:t=P:problem=zapis poprawiany	!
1D	-di,	1F#X	-di	1A	-di	2cc\	-(n)di
.	.	.	.	.	.	[y2dd\	mi-
=37	=37	=37	=37	=37	=37	=37	=37
!	!	!LO:TX:a:t=2	!	!LO:TX:a:t=3.	!	!LO:N:xstem:cue	!
2.E\	mi-	0r	.	0r	.	4dd\]	.
.	.	.	.	.	.	4dd\	-re-
.	.	.	.	.	.	[2cc\	-re-
4E\	-se-	.	.	.	.	.	.
=38	=38	=38	=38	=38	=38	=38	=38
4F#X\	-re-	.	.	.	.	2cc\]	.
4D\	-re	.	.	.	.	.	.
[2G\	no-	.	.	.	.	2b\	-re
!	!	!	!	!	!	!LO:LB:g=original	!
=39	=39	=39	=39	=39	=39	=39	=39
2G\]	.	2r	.	1r	.	1a	no-
!	!	!LO:N:vis=2.	!	!	!	!	!
2F#X\	.	[y2d\	mi-	.	.	.	.
=40	=40	=40	=40	=40	=40	=40	=40
!	!	!LO:N:xstem:cue	!	!	!	!	!
2G\	-bis	4d\]	.	2r	.	2b\	-bis
.	.	4d\	-re-	.	.	.	.
!	!	!	!	!LO:N:vis=2.	!	!	!
[2G\	mi-	[2cn\	-re-	[y2g\	mi-	2ee\	mi-
=41	=41	=41	=41	=41	=41	=41	=41
!	!	!	!	!LO:N:xstem:cue	!	!	!
2G\]	.	2cn\]	.	4g\]	.	1dd	-se-
.	.	.	.	4g\	-se-	.	.
2Fn\	-se-	2B\	-re	2g\	-re-	.	.
=42	=42	=42	=42	=42	=42	=42	=42
2E\	-re-	2.A\	mi-	2e\	-re,	2cc#X\	-re-
2F\	-re	.	.	2f\	mi-	[2dd\	.
.	.	4A\	-se-	.	.	.	.
=43	=43	=43	=43	=43	=43	=43	=43
2E\	no-	2G#X/	-re-	2B/	-se-	2dd\]	.
!	!	!	!	!LO:LB:g=original	!	!	!
2AA/	.	2A\	-re	4c\	-re-	2ccn\	-re
.	.	.	.	4d\	-re	.	.
=44	=44	=44	=44	=44	=44	=44	=44
!LO:TX:a:t=2	!	!	!	!	!	!	!
0E	.	2B\	no-	1e	no-	4g#X/	no-
.	.	.	.	.	.	4e/	.
.	.	2c\	.	.	.	[2a\	.
=45	=45	=45	=45	=45	=45	=45	=45
.	.	1B	.	1e	.	2a\]	.
.	.	.	.	.	.	2g#X\	.
=46	=46	=46	=46	=46	=46	=46	=46
!LO:TX:a:t=2	!	!LO:TX:a:t=2	!	!LO:TX:a:t=2	!	!LO:TX:a:t=2	!
0AA;	-bis.	0c#X	-bis	0e	-bis.	0a	-bis
=47	=47	=47	=47	=47	=47	=47	=47
.	.	.	A-	.	.	.	.
!LO:LB:g=original	!	!LO:LB:g=original	!	!	!	!	!
=48||	=48||	=48||	=48||	=48||	=48||	=48||	=48||
*M2/2	*	*M2/2	*	*M2/2	*	*M2/2	*
*met(c|)	*	*met(c|)	*	*met(c|)	*	*met(c|)	*
!LO:TX:a:t=2	!	!	!	!LO:TX:a:t=4.	!	!LO:TX:a:t=5.	!
0r	.	1A	A-	00r	.	00r	.
=49	=49	=49	=49	=49	=49	=49	=49
.	.	2E/	-gnus	.	.	.	.
.	.	2e\	De-	.	.	.	.
=50	=50	=50	=50	=50	=50	=50	=50
2r	.	2d\	-i	.	.	.	.
2E\	A-	2B\	qui	.	.	.	.
=51	=51	=51	=51	=51	=51	=51	=51
2AA/	gnus	2.c\	tol-	.	.	.	.
2A\	De-	.	.	.	.	.	.
.	.	4d\	.	.	.	.	.
=52	=52	=52	=52	=52	=52	=52	=52
2G\	-i	4e\	.	1e	A-	1r	.
.	.	4B\	.	.	.	.	.
2E\	qui	[2e\	.	.	.	.	.
=53	=53	=53	=53	=53	=53	=53	=53
1F	tol-	2e\]	.	2A/	-gnus	1a	A-
.	.	2d\	.	2a\	De-	.	.
!	!	!	!	!	!	!LO:LB:g=original	!
=54	=54	=54	=54	=54	=54	=54	=54
2C/	-lis	2e\	-lis	2g\	-i	2e/	-gnus
2C/	pec-	2E/	pec-	2c\	qui	2ee\	De-
=55	=55	=55	=55	=55	=55	=55	=55
2D\	-ca-	2F#X/	-ca-	1c	tol-	2dd\	-i
2E\	-ta	2G#X/	-ta	.	.	2b\	qui
!	!	!LO:LB:g=original	!	!	!	!	!
=56	=56	=56	=56	=56	=56	=56	=56
4AA/	mun-	1A	mun-	4c\	-lis	1cc	tol-
4BB/	.	.	.	4d\	.	.	.
4C/	.	.	.	4e\	pec-	.	.
4D/	.	.	.	4f#X\	.	.	.
!	!	!	!	!LO:LB:g=original	!	!	!
=57	=57	=57	=57	=57	=57	=57	=57
2E\	-di	1G#X	-di	2g#X\	-ca-	2b\	-lis
!LO:LB:g=original	!	!	!	!	!	!	!
[2E\	Do-	.	.	[2g#\	-ta	[2b\	qui
=58	=58	=58	=58	=58	=58	=58	=58
!	!	!LO:TX:a:t=2	!	!	!	!	!
2E\]	.	0r	.	2g#\]	.	2b\]	.
2C/	-na	.	.	2e\	mun-	[2a\	tol-
=59	=59	=59	=59	=59	=59	=59	=59
2D\	no-	.	.	2fn\	.	2a\]	.
2E\	-bis	.	.	2B/	.	2g#X\	-lis
=60	=60	=60	=60	=60	=60	=60	=60
1F	pa-	2r	.	1A	-di	4a\	pe-
.	.	.	.	.	.	4g#X\	.
.	.	[2A\	Do-	.	.	4a\	.
.	.	.	.	.	.	4b\	.
=61	=61	=61	=61	=61	=61	=61	=61
!	!	!	!	!LO:TX:a:t=2	!	!	!
2.E\	-cem	2A\]	.	0r	.	2cc\	-ca-
.	.	2G#X/	-na	.	.	2b\	-ta
4D\	da	.	.	.	.	.	.
=62	=62	=62	=62	=62	=62	=62	=62
2C/	no-	2A\	no-	.	.	4cc\	mun-
.	.	.	.	.	.	4dd\	.
2GG#X/	-bis	2B\	-bis	.	.	2ee\	.
=63	=63	=63	=63	=63	=63	=63	=63
2AA/	Do-	1c	pa-	2r	.	2e/	-di
[2A\	.	.	.	[2e\	Do-	2r	.
!	!	!	!	!	!	!LO:LB:g=original	!
=64	=64	=64	=64	=64	=64	=64	=64
2A\]	.	1B	-cem	2e\]	.	2.ee\	Do-
2G#X\	-na	.	.	2e\	-na	.	.
.	.	.	.	.	.	4dd\	-na
=65	=65	=65	=65	=65	=65	=65	=65
!	!	!LO:TX:a:t=1.	!	!	!	!	!
2A\	no-	1r	.	2e\	no-	2cc\	no-
2B\	-bis	.	.	2d\	-bis	2g#X\	-bis
!LO:LB:g=original	!	!	!	!	!	!	!
=66	=66	=66	=66	=66	=66	=66	=66
1c	pa-	2r	.	2c\	pa-	2a\	do-
.	.	[2e\	do-	2e\	-cem	4ee\	.
.	.	.	.	.	.	4ff#X\	-na
!	!	!	!	!LO:LB:g=original	!	!	!
=67	=67	=67	=67	=67	=67	=67	=67
2.B\	-cem	2e\]	.	2.d\	do-	2gg\	no-
.	.	2d#X\	-na	.	.	2ff#X\	-bis
4A\	da	.	.	4c\	-na	.	.
=68	=68	=68	=68	=68	=68	=68	=68
4G\	no-	2e\	no-	4B/	no-	2ee\	pa-
4F#X\	.	.	.	4d\	.	.	.
[2E\	.	2g\	-bis	2e\	-bis	2b\	-cem
!	!	!LO:LB:g=original	!	!	!	!	!
=69	=69	=69	=69	=69	=69	=69	=69
2E\]	.	1f#X	do-	2c\	pa-	2a\	do-
2D\	-bis	.	.	2d\	.	[2b\	.
=70	=70	=70	=70	=70	=70	=70	=70
1C	pa-	1e	-na	2e\	.	2b\]	.
.	.	.	.	2c\	-cem	2a\	-na
=71	=71	=71	=71	=71	=71	=71	=71
2.BB/	-cem	2d\	pa-	2.d\	do-	2g\	no-
.	.	[2d\	-cem	.	.	2f#X/	-bis
4AA/	da	.	.	4c\	-na	.	.
=72	=72	=72	=72	=72	=72	=72	=72
2GG#X/	no-	2d\]	.	2B/	pa-	2e/	pa-
2AA/	-bis	2c\	da	2e\	.	[2a\	.
=73	=73	=73	=73	=73	=73	=73	=73
2.E\	do-	1B	pa-	2e\	-cem	2a\]	.
.	.	.	.	2r	.	2g#X\	-cem
4D\	-na	.	.	.	.	.	.
!	!	!	!	!	!	!LO:LB:g=original	!
=74	=74	=74	=74	=74	=74	=74	=74
2C/	no-	2.e\	.	2r	.	2a\	do-
2GG#X/	-bis	.	.	2e\	do-	2b\	-na
.	.	4d\	-cem	.	.	.	.
!LO:LB:g=original	!	!	!	!LO:LB:g=original	!	!	!
=75	=75	=75	=75	=75	=75	=75	=75
2AA/	do-	2c\	do-	2e\	.	2r	.
2E\	-na	2G#X/	-na	2e\	-na	4.ee\	do-
.	.	.	.	.	.	8dd\	-na
=76	=76	=76	=76	=76	=76	=76	=76
2A\	no-	2A\	no-	1e	no-	2ccn\	no-
2E\	-bis	2B\	-bis	.	.	2g#X\	-bis
=77	=77	=77	=77	=77	=77	=77	=77
4AA/	pa-	4c\	pa-	2e\	-bis	4a\	pa-
4BB/	.	4d\	.	.	.	8g\L	.
.	.	.	.	.	.	8f#X\J	.
4C/	.	[2e\	-cem	2r	.	4e/	.
4D/	-cem	.	.	.	.	4f#/	-cem
=78	=78	=78	=78	=78	=78	=78	=78
!LO:TX:a:t=2	!	!	!	!	!	!	!
0E	pa-	2e\]	.	2r	.	4g#X/	do-
.	.	.	.	.	.	4e/	-na
!	!	!LO:LB:g=original	!	!	!	!	!
.	.	4d\	do-	2e\	da	[2a\	pa-
.	.	4c\	-na	.	.	.	.
=79	=79	=79	=79	=79	=79	=79	=79
.	.	4B\	no-	1e	pa-	2a\]	.
.	.	4A\	-bis	.	.	.	.
.	.	2B\	pa-	.	.	2g#X\	.
=80	=80	=80	=80	=80	=80	=80	=80
!	!	!	!	!	!	!LO:TX:a:t=2	!
!	!	!LO:TX:a:t=2	!	!	!	!	!
0AA	-cem.	0c#X	-cem.	0e	-cem.	0a	-cem.
=81	=81	=81	=81	=81	=81	=81	=81
.	.	.	.	.	.	.	.
==	==	==	==	==	==	==	==
*-	*-	*-	*-	*-	*-	*-	*-
!!!system-decoration: [(s1,s2,s3,s4)]
!!!RDF**kern: > = above
!!!ENC: Zofia Niedbalska
!!!END: 2021-01-30
!!!ENC: Andrzej Gręziak
!!!END: 2021-01-20
!!!YEC: Copyright 2022 Narodowy Instytut Fryderyka Chopina (https://polishscores.org)
!!!YEM: License CC-BY-4.0 (https://creativecommons.org/licenses/by/4.0)
